X: 4379
T: Le PETIT TAMBOUR
R: March
%R: march
B: James Kerr "Merry Melodies" v.4 p.41 #379
Z: 2016 John Chambers <jc:trillian.mit.edu>
M: 2/4
L: 1/16
K: D
(fe) |\
d2A2F2A2 | d6 (cd) | e2e2e2e2 | e6 (de) |\
f2f2f2f2 | f2gf e2fe | d2d2 cdec | d6 :|\
(dc) |\
B2B2c2d2 | (e3fe2) (dc) |
B2B2c2d2 | e6 (dc) |\
B2B2c2d2 | e2fe d2ed | c2dc B2cB | A6 A2 |\
d2dd (.d2.d2) | d6 A2 | d2A2F2D2 | A2A2 z2A2 |\
d2dd (.d2.d2) |
d6 f2 | fedc edcB | A4 f3e |\
d2A2F2A2 | d6 (cd) | e2e2e2e2 | e6 (de) |\
f2ff (.f2.f2) | fagf egfe | d2d2 cdec | d6 |]

%%sep 1 1 500
%%sep 1 1 500

